static/assets/images/tokens/bob.svg

<svg width="256" height="256" viewBox="0 0 256 256" fill="none" xmlns="http://www.w3.org/2000/svg">
<path d="M128 256C198.692 256 256 198.692 256 128C256 57.3075 198.692 0 128 0C57.3075 0 0 57.3075 0 128C0 198.692 57.3075 256 128 256Z" fill="url(#paint0_linear_4193_3352)"/>
<path fill-rule="evenodd" clip-rule="evenodd" d="M138.766 50.6845V50.7252C161.855 51.7179 180.269 70.7505 180.269 94.0838C180.269 104.922 176.296 114.832 169.727 122.437C182.847 130.181 191.649 144.463 191.649 160.8C191.649 185.348 171.779 205.256 147.245 205.316H80.7514L80.7512 50.6845H138.766ZM118.461 79.1917C118.461 76.6917 120.139 74.5835 122.431 73.9325C124.305 73.3234 126.446 73.7634 127.936 75.2526L142.669 89.9855C142.792 90.0887 142.912 90.1983 143.027 90.3141C145.142 92.428 145.142 95.8552 143.027 97.969L128.024 112.973C126.933 114.063 125.493 114.591 124.063 114.557C124.018 114.558 123.973 114.558 123.928 114.558C120.909 114.558 118.461 112.111 118.461 109.091V79.1917ZM144.568 175.693C144.568 178.193 142.889 180.301 140.598 180.952C138.724 181.562 136.582 181.121 135.094 179.631L120.362 164.901C120.238 164.797 120.118 164.687 120.001 164.571C117.887 162.456 117.887 159.03 120.001 156.915L135.004 141.911C136.096 140.82 137.536 140.293 138.964 140.328C138.993 140.328 139.02 140.326 139.048 140.326C139.066 140.326 139.083 140.326 139.101 140.326C142.12 140.326 144.568 142.774 144.568 145.793V175.693Z" fill="white"/>
<defs>
<linearGradient id="paint0_linear_4193_3352" x1="0.42152" y1="29.2145" x2="313.894" y2="180.998" gradientUnits="userSpaceOnUse">
<stop offset="0.053951" stop-color="#6D5CFF"/>
<stop offset="0.559189" stop-color="#E86EFF"/>
<stop offset="0.923794" stop-color="#FFD66E"/>
</linearGradient>
</defs>
</svg>

<svg xmlns="http://www.w3.org/2000/svg" fill="none" viewBox="0 0 256 256"><path fill="url(#paint0_linear_4193_3352)" d="M128 256c70.692 0 128-57.308 128-128S198.692 0 128 0 0 57.308 0 128s57.308 128 128 128"/><path fill="#fff" fill-rule="evenodd" d="M138.766 50.685v.04c23.089.993 41.503 20.026 41.503 43.359a43.23 43.23 0 0 1-10.542 28.353c13.12 7.744 21.922 22.026 21.922 38.363 0 24.548-19.87 44.456-44.404 44.516H80.751V50.684zm-20.305 28.507a5.47 5.47 0 0 1 3.97-5.26 5.41 5.41 0 0 1 5.505 1.32l14.733 14.734q.185.154.358.328a5.41 5.41 0 0 1 0 7.655l-15.003 15.004a5.4 5.4 0 0 1-3.961 1.584l-.135.001a5.467 5.467 0 0 1-5.467-5.467zm26.107 96.501a5.47 5.47 0 0 1-3.97 5.259 5.41 5.41 0 0 1-5.504-1.321l-14.732-14.73a5.414 5.414 0 0 1-.361-7.986l15.003-15.004a5.4 5.4 0 0 1 3.96-1.583l.084-.002h.053a5.467 5.467 0 0 1 5.467 5.467z" clip-rule="evenodd"/><defs><linearGradient id="paint0_linear_4193_3352" x1=".422" x2="313.894" y1="29.215" y2="180.998" gradientUnits="userSpaceOnUse"><stop offset=".054" stop-color="#6D5CFF"/><stop offset=".559" stop-color="#E86EFF"/><stop offset=".924" stop-color="#FFD66E"/></linearGradient></defs></svg>
